img/coaches.svg

<?xml version="1.0" encoding="UTF-8"?>
<svg width="96px" height="96px" viewBox="0 0 96 96" version="1.1" xmlns="http://www.w3.org/2000/svg" xmlns:xlink="http://www.w3.org/1999/xlink">
    <!-- Generator: Sketch 43.2 (39069) - http://www.bohemiancoding.com/sketch -->
    <title>coaches</title>
    <desc>Created with Sketch.</desc>
    <defs></defs>
    <g id="Page-1" stroke="none" stroke-width="1" fill="none" fill-rule="evenodd">
        <g id="coaches" fill-rule="nonzero" fill="#19A974">
            <path d="M57.4247955,38.8220458 C57.4247955,37.1553508 58.7330553,35.841292 60.4034277,35.841292 L89.9829025,35.841292 C93.4516679,35.841292 96.2566805,38.9245347 95.9148516,42.3572824 L94.9526531,51.3419327 C94.6261704,53.9653715 92.7570799,56.0774187 90.1635499,56.5658555 L59.1835144,62.4674231 C59.301243,63.5683303 59.3615489,64.6178126 59.3615489,65.6481102 C59.3615489,82.1220236 46.0874821,95.4549284 29.6752356,95.4549284 C12.6944535,95.4549284 -0.841462791,81.2350462 -0.00765272495,64.1711806 C0.822890799,48.3209065 14.3682034,35.841292 30.4410472,35.841292 L49.9692441,35.841292 C51.6396166,35.841292 52.9478764,37.1553508 52.9478764,38.8220458 L52.9478764,42.1729554 L57.4247955,41.3192121 L57.4247955,38.8220458 Z M30.4410472,40.841292 C16.9960957,40.841292 5.6751383,51.2715559 4.98594304,64.4240118 C4.29200165,78.6257397 15.5522151,90.4549284 29.6752356,90.4549284 C43.321096,90.4549284 54.3615489,79.365538 54.3615489,65.6481102 C54.3615489,64.191824 54.2116372,62.6430399 53.9166383,60.8652011 L53.5170345,58.4569507 L55.9150898,58.0001311 L89.2330294,51.6532082 C89.6337952,51.5777315 89.925802,51.2477677 89.9859936,50.767083 L90.9413534,41.8434996 C90.9877538,41.3774389 90.4999885,40.841292 89.9829025,40.841292 L62.4247955,40.841292 L62.4247955,42.5719258 C62.4247955,44.2295328 61.3131405,45.6506378 59.6273301,45.989172 L52.0093635,47.4413838 C49.9171282,47.7916353 47.9478764,46.1433182 47.9478764,44.0141873 L47.9478764,40.841292 L30.4410472,40.841292 Z M29.6752356,76.89767 C35.8544325,76.89767 40.8641187,71.8657781 40.8641187,65.6481102 C40.8641187,59.4304423 35.8544325,54.3985503 29.6752356,54.3985503 C23.4960387,54.3985503 18.4863524,59.4304423 18.4863524,65.6481102 C18.4863524,71.8657781 23.4960387,76.89767 29.6752356,76.89767 Z M29.6752356,81.89767 C20.7296525,81.89767 13.4863524,74.6222636 13.4863524,65.6481102 C13.4863524,56.6739567 20.7296525,49.3985503 29.6752356,49.3985503 C38.6208186,49.3985503 45.8641187,56.6739567 45.8641187,65.6481102 C45.8641187,74.6222636 38.6208186,81.89767 29.6752356,81.89767 Z M65.5053692,25.9628692 L72.763414,6.17207789 C73.3401527,4.73171981 74.84613,4.04789142 76.3154282,4.5389677 C77.7570803,5.11503316 78.4420786,6.62047352 77.9605649,8.06215554 L70.7103857,27.8326668 C70.2838037,28.9690441 69.2533762,29.6552866 68.1092033,29.6552866 C67.9056187,29.6552866 67.8042375,29.6516856 67.6551339,29.6305017 C67.4618903,29.6030465 67.2770869,29.5499516 67.0969999,29.4630015 C65.760935,28.8588772 65.0387472,27.3599285 65.5053692,25.9628692 Z M45.1021421,29.6374338 C44.9717992,29.6526767 44.8825327,29.6552866 44.7016484,29.6552866 C43.533111,29.6552866 42.5790048,28.9508058 42.1176782,27.8754885 L34.8314038,8.00548099 C34.3882254,6.52974474 35.1355525,4.98997411 36.5505496,4.51879537 C37.9565244,4.05062102 39.5990235,4.82276372 40.057955,6.19950454 L47.3243654,26.0195437 C47.7610521,27.473663 47.0418554,28.9899545 45.6669697,29.4848392 C45.4845031,29.5667247 45.2979707,29.6145327 45.1021421,29.6374338 Z M56.356456,29.6552866 C54.9387356,29.6552866 53.7456301,28.4634129 53.593544,26.8941947 L53.593544,5.85893034 C53.593544,4.32802982 54.8250068,3.09783844 56.356456,3.09783844 C57.8879053,3.09783844 59.1193681,4.32802982 59.1193681,5.85893034 L59.1193681,26.8941947 C59.1193681,28.4250952 57.8879053,29.6552866 56.356456,29.6552866 Z" id="Shape"></path>
        </g>
    </g>
</svg>

<svg width="96" height="96" viewBox="0 0 96 96" xmlns="http://www.w3.org/2000/svg"><title>coaches</title><path d="M57.425 38.822a2.95 2.95 0 0 1 2.978-2.98h29.58c3.469 0 6.274 3.083 5.932 6.515l-.962 8.985c-.327 2.623-2.196 4.735-4.79 5.224l-30.98 5.901c.118 1.101.179 2.15.179 3.181 0 16.474-13.275 29.807-29.687 29.807-16.98 0-30.516-14.22-29.683-31.284.83-15.85 14.376-28.33 30.449-28.33h19.528a2.95 2.95 0 0 1 2.979 2.981v3.351l4.477-.854v-2.497zm-26.984 2.02c-13.445 0-24.766 10.43-25.455 23.582-.694 14.202 10.566 26.03 24.69 26.03 13.645 0 24.686-11.088 24.686-24.806 0-1.456-.15-3.005-.445-4.783l-.4-2.408L55.915 58l33.318-6.347c.4-.075.693-.405.753-.886l.955-8.924c.047-.466-.441-1.002-.958-1.002H62.425v1.73c0 1.659-1.112 3.08-2.798 3.418l-7.618 1.452c-2.092.35-4.061-1.298-4.061-3.427v-3.173H30.44zm-.766 36.056c6.18 0 11.19-5.032 11.19-11.25s-5.01-11.25-11.19-11.25c-6.179 0-11.189 5.032-11.189 11.25s5.01 11.25 11.19 11.25zm0 5c-8.945 0-16.189-7.276-16.189-16.25s7.244-16.25 16.19-16.25c8.945 0 16.188 7.276 16.188 16.25s-7.243 16.25-16.189 16.25zm35.83-55.935l7.258-19.79c.577-1.441 2.083-2.125 3.552-1.634 1.442.576 2.127 2.081 1.646 3.523l-7.25 19.77c-.427 1.137-1.458 1.823-2.602 1.823a2.84 2.84 0 0 1-.454-.024 1.874 1.874 0 0 1-.558-.168c-1.336-.604-2.058-2.103-1.592-3.5zm-20.403 3.674a2.91 2.91 0 0 1-.4.018c-1.169 0-2.123-.704-2.584-1.78L34.83 8.005c-.443-1.475.305-3.015 1.72-3.486 1.406-.468 3.048.304 3.507 1.68l7.266 19.82c.437 1.455-.282 2.971-1.657 3.466a1.9 1.9 0 0 1-.565.152zm11.254.018c-1.417 0-2.61-1.192-2.762-2.76V5.858a2.755 2.755 0 0 1 2.762-2.761 2.755 2.755 0 0 1 2.763 2.76v21.036a2.755 2.755 0 0 1-2.763 2.761z" fill="#19A974"/></svg>
